X: 3
T: The Cape Breton Fiddlers' Society's Welcome To The Shetland Islands
R: reel
M: 4/4
L: 1/8
K: Amaj
|: AF | EC~C2 ECB,C | A,B,CE FECE | FBBA BcBA | Bffe f2fg |
ac~c2 eA~A2 | cBAF EC~C2 | FGAF Eaaf | ecBc A2 :|
|: fg | ae~e2 efed | ce~e2 fece | bf~f2 fgfe | defd B2fg |
ae~e2 efed | ce~e2 fece | fdge afed | cABG A2 :|


Tune 1048	Setting 1048

